Suru++-Ubuntu/apps/symbolic/miro-symbolic.svg

<svg width="16" height="16" version="1.0" xmlns="http://www.w3.org/2000/svg">
 <path d="m11.384766 0.63671875c-1.3959688-0.00426149-2.8144679 0.39885425-3.9335941 0.99609375-4.3887241 2.342112-7.4511719 8.2226563-7.4511719 8.2226563 6.4866733 6.9063562 11.626953 4.0722652 11.626953 4.0722652 4.968515-2.372954 4.347656-10.800781 4.347656-10.800781-1.037047-1.80465-2.795027-2.4847553-4.589843-2.4902344zm-6.3105472 4.4316406c1.6072756 0 5.2023962 0.0039062 6.1289062 0.0039062 0.449891 0 0.553366 0.0463528 0.914063 0.1679688 0.630485 0.3206334 0.866028 1.0193305 0.892578 1.6523437 0.01865 1.0469601 0.004865 2.0934139 0.009765 3.1406249h-1.728515v-2.8066405c0-0.5769307-0.038917-1.1660156-0.69336-1.1660156-0.727439 0-0.555494 0.7068837-0.558594 1.1582031-0.020319 0.9383399 0.005001 1.875859 0 2.814453h-1.9863276v-2.8281249c0-0.6553344-0.0753947-1.1445312-0.7441406-1.1445312-0.5829026 0-0.5078126 0.6004893-0.5078126 1.109375-0.028842 0.9540168 0.0069201 1.908818 0 2.8632811h-1.7265624v-4.9648436z" style="fill-rule:evenodd;fill:#808080"/>
</svg>

<svg xmlns="http://www.w3.org/2000/svg" width="16" height="16" version="1.0">
 <g>
  <path d="M 11.384766 0.63671875 C 9.9887972 0.63245726 8.5702981 1.035573 7.4511719 1.6328125 C 3.0624478 3.9749245 1.7004881e-16 9.8554688 0 9.8554688 C 6.4866733 16.761825 11.626953 13.927734 11.626953 13.927734 C 16.595468 11.55478 15.974609 3.1269531 15.974609 3.1269531 C 14.937562 1.3223031 13.179582 0.64219781 11.384766 0.63671875 z M 5.0742188 5.0683594 C 6.6814944 5.0683594 10.276615 5.0722656 11.203125 5.0722656 C 11.653016 5.0722656 11.756491 5.1186184 12.117188 5.2402344 C 12.747673 5.5608678 12.983216 6.2595649 13.009766 6.8925781 C 13.028416 7.9395382 13.014631 8.985992 13.019531 10.033203 L 11.291016 10.033203 L 11.291016 7.2265625 C 11.291016 6.6496318 11.252099 6.0605469 10.597656 6.0605469 C 9.870217 6.0605469 10.042162 6.7674306 10.039062 7.21875 C 10.018743 8.1570899 10.044063 9.094609 10.039062 10.033203 L 8.0527344 10.033203 L 8.0527344 7.2050781 C 8.0527344 6.5497437 7.9773397 6.0605469 7.3085938 6.0605469 C 6.7256912 6.0605469 6.8007812 6.6610362 6.8007812 7.1699219 C 6.7719392 8.1239387 6.8077013 9.0787399 6.8007812 10.033203 L 5.0742188 10.033203 L 5.0742188 5.0683594 z" style="fill:#808080;fill-rule:evenodd"/>
 </g>
</svg>
